icons/SVG/notebook_icon.svg

<?xml version="1.0" encoding="UTF-8"?>
<svg width="300px" height="260px" viewBox="0 0 300 260" version="1.1" xmlns="http://www.w3.org/2000/svg" xmlns:xlink="http://www.w3.org/1999/xlink">
    <!-- Generator: Sketch 42 (36781) - http://www.bohemiancoding.com/sketch -->
    <title>notebook_icon</title>
    <desc>Created with Sketch.</desc>
    <defs></defs>
    <g id="Page-1" stroke="none" stroke-width="1" fill="none" fill-rule="evenodd">
        <g id="notebook_icon" fill="#1A1918">
            <g id="Notebook_Icon">
                <path d="M80.3781878,249.963707 L219.622074,249.963707 L289.24369,130.000424 L219.622074,10.0364887 L80.3781878,10.0364887 L10.7562445,130.000424 L80.3781878,249.963707 Z M222.458319,259.738143 L77.5419432,259.738143 C75.7868122,259.738143 74.1649782,258.806639 73.2875764,257.294534 L0.829388646,132.444033 C-0.0483406114,130.931927 -0.0483406114,129.06892 0.829388646,127.556815 L73.2875764,2.70566165 C74.1649782,1.19355639 75.7868122,0.262052632 77.5419432,0.262052632 L222.458319,0.262052632 C224.21345,0.262052632 225.834956,1.19355639 226.712686,2.70566165 L299.170546,127.556815 C300.048275,129.06892 300.048275,130.931927 299.170546,132.444033 L226.712686,257.294534 C225.834956,258.806639 224.21345,259.738143 222.458319,259.738143 L222.458319,259.738143 Z" id="Fill-1"></path>
                <path d="M193.818013,146.65792 C178.828166,146.687895 163.836681,146.66802 148.846834,146.66802 C134.023362,146.662155 119.198908,146.679749 104.375109,146.652707 C98.6197598,146.641303 97.3408297,145.431554 97.3201965,139.633358 C97.259607,122.731729 97.2491266,105.831729 97.3116812,88.9301003 C97.3319869,83.3586717 98.8152838,81.931604 104.553603,81.9423559 C134.197598,81.9938346 163.840939,82.0935338 193.484934,82.2284211 C199.42107,82.2554637 200.489738,83.3769173 200.504148,89.2526566 C200.543122,106.154286 200.561463,123.055589 200.531659,139.955915 C200.522489,145.629649 199.475437,146.64619 193.818013,146.65792 M158.128166,167.221704 L141.428057,167.221704 C139.697817,167.221704 138.254803,166.18594 137.797271,164.778095 C137.594869,164.432406 137.477948,164.116366 137.531004,163.910451 C137.562773,163.788596 137.613865,163.661855 137.666266,163.533484 C137.843777,161.815138 139.449891,160.463985 141.428057,160.463985 L158.128166,160.463985 C160.225873,160.463985 161.924672,161.976742 161.924672,163.843008 C161.924672,165.709273 160.225873,167.221704 158.128166,167.221704 M212.719978,155.137895 C209.354148,154.377444 209.429476,152.002907 209.431769,149.430602 C209.452729,127.716366 209.46321,106.002782 209.429476,84.2898496 C209.416376,75.3283208 206.816594,72.7563409 197.832642,72.7514536 C165.67631,72.7315789 133.520306,72.7354887 101.363646,72.7433083 C91.8258734,72.7459148 89.1979258,75.3309273 89.1858079,84.805614 C89.1586245,106.022005 89.0921397,127.238396 89.24869,148.454135 C89.2784934,152.475013 88.455131,155.178947 84.0222707,155.794411 C81.2292576,156.182782 80.385917,157.853233 80.4514192,160.676416 C80.6210699,167.95609 84.4372271,171.958722 91.9418122,171.97599 C111.102183,172.019975 130.26321,171.991303 149.423581,171.985113 C168.251201,171.976967 187.077838,171.978596 205.905131,171.97599 C207.2381,171.97599 208.587118,172.069499 209.900109,171.908546 C214.758406,171.31817 217.895961,167.482682 218.940066,162.046792 C219.97107,156.681604 216.308188,155.947218 212.719978,155.137895" id="Fill-3"></path>
            </g>
        </g>
    </g>
</svg>

<svg width="300" height="260" viewBox="0 0 300 260" xmlns="http://www.w3.org/2000/svg"><title>notebook_icon</title><g fill="#FFF" fill-rule="evenodd"><path d="M80.378 249.964h139.244L289.244 130 219.622 10.036H80.378L10.756 130l69.622 119.964zm142.08 9.774H77.542a4.917 4.917 0 0 1-4.254-2.443L.829 132.444a4.865 4.865 0 0 1 0-4.887L73.288 2.706A4.917 4.917 0 0 1 77.542.262h144.916a4.92 4.92 0 0 1 4.255 2.444l72.458 124.85a4.865 4.865 0 0 1 0 4.888l-72.458 124.85a4.917 4.917 0 0 1-4.255 2.444z"/><path d="M193.818 146.658c-14.99.03-29.981.01-44.971.01-14.824-.006-29.648.012-44.472-.015-5.755-.012-7.034-1.221-7.055-7.02-.06-16.901-.07-33.801-.008-50.703.02-5.571 1.503-6.998 7.242-6.988 29.644.052 59.287.152 88.93.286 5.937.027 7.006 1.149 7.02 7.025.04 16.901.057 33.803.028 50.703-.01 5.674-1.057 6.69-6.714 6.702m-35.69 20.564h-16.7c-1.73 0-3.173-1.036-3.63-2.444-.203-.346-.32-.662-.267-.868.032-.121.083-.248.135-.377.178-1.718 1.784-3.069 3.762-3.069h16.7c2.098 0 3.797 1.513 3.797 3.379s-1.7 3.379-3.797 3.379m54.592-12.084c-3.366-.76-3.29-3.135-3.288-5.707.02-21.715.031-43.428-.003-65.141-.013-8.962-2.612-11.534-11.596-11.539-32.157-.02-64.313-.016-96.47-.008-9.537.003-12.165 2.588-12.177 12.063-.027 21.216-.094 42.432.063 63.648.03 4.021-.794 6.725-5.227 7.34-2.793.389-3.636 2.06-3.57 4.882.17 7.28 3.985 11.283 11.49 11.3 19.16.044 38.321.015 57.482.01 18.827-.009 37.654-.007 56.481-.01 1.333 0 2.682.093 3.995-.067 4.858-.59 7.996-4.426 9.04-9.862 1.031-5.365-2.632-6.1-6.22-6.91"/></g></svg>
